X: 1
T: Nancy
Z: Stewart
S: https://thesession.org/tunes/3471#setting3471
R: reel
M: 4/4
L: 1/8
K: Dmaj
"^[A]"(3ABc|:"D"d2D2F2A2|d2fe d2A2|d2ef {ga"G"}gf e/2d3/2|
"A"c2ec A2Bc|"D"d2D2F2A2|d2fe d2A2|"G"B2g2"A"{g}fe d/2c3/2|
[1"D"d6 (3ABc:|[2"D"d6(fg)||
|:"^[B]"a3b a2f2|"G"g3a g2e2|"D"f2d2gfed|
"A"c2e2A2Bc|"D"d2D2F2A2|d2fe d2A2|
"G"B2g2"A"fedc|[1"D"d6(fg):|[2"D"d6 (3ABc||
|:"^[A']"dcBA GFED|F2A2d2A2|dcdf"G"gfed|
"A"cdec A2Bc|"D"dcBA GFED|F2A2d2A2|
"G"B2g2"A"fedc|[1"D"d6 (3ABc:|[2"D"d6(fg)||
|:"^[B']"afaf a2gf|"G"gege g2fe|"D"fdfd gfed|
"A"cdec A2Bc|"D"dcBA GFED|F2A2d2A2|
"G"B2g2"A"fedc|[1"D"d6(fg):|[2"D"d6|]
